X: 769
T: Out on the Ocean
C:F. O'Neill.
B: jims roots
M:6/8
R: Jig
Q: 3/8=100
K:G
V:1 
%N: page 1
%N: hexatonic
%N: O'Neill's &#8211; 795
"G"B3 BAG|BdB "D"A3|"C"GED G2 A|"A7"BAB "D" AGA|"G"B3 BAG|BdB "D"A3|
"C"GED G2 A|[1"D"BGF G2A:|[2 "D"BGF "G"GBd|: "Em"ege edB|ege edB|"D"d3 def|
"C"gfe "D"dBA| "G"G2A B2d|"Em"ege dBA|"C"GED G2 A|[1"D"BGF "G"GBd:|[2"D"BGF G3|
% abcbook-tune_id 6298c27934f76945bd958218


% abcbook-boost 0
% abcbook-tablature 
% abcbook-transpose 
% abcbook-lastupdated 1654178426255
% abcbook-soundfonts 
% abcbook-repeats 1


